src/images/icons/yellow_case.svg

<svg width="41" height="41" viewBox="0 0 41 41" fill="none" xmlns="http://www.w3.org/2000/svg">
<path d="M2.95318 34.4538V10.1885C2.95318 15.7667 2.95318 20.1309 2.95318 23.2809C2.95318 26.431 2.95318 28.7935 2.95318 30.3685C2.95318 31.9436 2.95318 32.9608 2.95318 33.4202C2.95318 33.8796 2.95318 34.2241 2.95318 34.4538ZM0 37.407V7.23529H12.3049V0H27.0708V7.23529H39.3757V21.6567C38.8836 21.6567 38.3914 21.6567 37.8992 21.6567C37.407 21.6567 37.407 21.6567 36.4226 21.6567V10.1885H2.95318V34.4538H20.6723C20.6723 34.946 20.6723 35.4382 20.6723 35.9304C20.6723 36.4226 20.6723 36.9148 20.6723 37.407H0ZM15.2581 7.23529H24.1176V2.95318H15.2581V7.23529ZM31.5006 41C28.9084 41 26.6771 40.0648 24.8067 38.1945C22.9364 36.3241 22.0012 34.0928 22.0012 31.5006C22.0012 28.9084 22.9364 26.6771 24.8067 24.8067C26.6771 22.9364 28.9084 22.0012 31.5006 22.0012C34.0928 22.0012 36.3241 22.9364 38.1945 24.8067C40.0648 26.6771 41 28.9084 41 31.5006C41 34.0928 40.0648 36.3241 38.1945 38.1945C36.3241 40.0648 34.0928 41 31.5006 41ZM35.1429 36.4718L36.4718 35.1429L32.3373 31.4022V25.2989H30.2701V31.9928L35.1429 36.4718Z" fill="#EED476"/>
</svg>

<svg width="41" height="41" fill="none" xmlns="http://www.w3.org/2000/svg"><path d="M2.953 34.454V10.188v24.266ZM0 37.407V7.235h12.305V0H27.07v7.235h12.305v14.422H36.423V10.188H2.953v24.266h17.72V37.407H0ZM15.258 7.235h8.86V2.953h-8.86v4.282ZM31.501 41c-2.593 0-4.824-.935-6.694-2.806-1.87-1.87-2.806-4.101-2.806-6.693 0-2.593.935-4.824 2.806-6.694C26.677 22.937 28.908 22 31.5 22c2.592 0 4.823.935 6.693 2.806C40.064 26.677 41 28.908 41 31.5c0 2.592-.935 4.823-2.806 6.693-1.87 1.87-4.101 2.806-6.693 2.806Zm3.642-4.528 1.329-1.33-4.135-3.74V25.3H30.27v6.694l4.873 4.479Z" fill="#EED476"/></svg>
